X:1
T:Title
%%score { ( 1 3 ) | ( 2 4 ) }
L:1/8
M:4/4
K:D
V:1 treble nm="Grand Piano"
V:3 treble 
V:2 bass 
V:4 bass 
V:1
 z4 z2[Q:1/4=100] DF | A2 A2 A2 z A | [Fd]2 d2 d2 cd | e2 d2 c2 B2 | [DFA]6 DF | A2 A2 A3 F | %6
 GABc [Fd]3 [Fd] | [Ec]2 [Ae]2 [^Ge]2 [DEG]2 | A6 .[A,F]2 | D2 F2 [FA]3 [FA] | [Ad]2 [Ac]2 B3 B | %11
 A2 A2 G2 F2 | [CE]6 A2 | [Fd]2 [Ac]2 [GB]3 F | G2 AA B3 B | A3 d d2 c2 |[M:3/4] [Fd]6 | %17
[M:1/4] [Fd]2 |[M:4/4] e3 d c2 z C | [FA]2 [Fd]2 [FA]3 [FA] | B2 A2 G2 F2 | [CE]6 [DF][EG] | %22
 [FA]>[FA] [GB][Gc] [Fd]3 [Ac] | [GB]2 [GB]2 [^Ge]3 [Gd] | c2 Bc f2 e2 |[M:3/4] [Fd]6 |] %26
V:2
 z4 z2 D,F, | A,2 [G,CE]2 [F,DF]2 [D,A,]2 | [D,A,]2[K:treble] [A,F]2 [F,A,F]2 [D,A,]2 | %3
 [G,B,G]2 [G,B,G]2 [G,DG]2 [G,DG]2 | D,6 D,F, | A,2 [G,CE]2 [F,DF]3 [D,A,D] | %6
 [E,A,C]2 [A,,A,]2 [D,A,]3 [D,A,] | [E,A,]2 [E,C]2 [E,B,]2 E,2 | A,,2 C,2 z G z G, | %9
 [D,F,]2 [D,A,D]2 [D,D]3 [D,A,] | [F,A,]2 [F,D]2[K:treble] [G,DG]3 [G,DG] | %11
 [A,DF]2[K:bass] [F,A,D]2 [E,A,C]2 [D,A,D]2 | [A,,A,]6 [A,G]2 | [D,A,]2 [D,A,]2 [D,D]3 [D,A,D] | %14
 [E,A,C]2 .[F,D]2[K:treble] [G,DG]3 [^G,D=F] | [A,DF]3 [A,F] [A,E]2 [A,G]2 | %16
[M:3/4][K:bass] [D,A,]6 |[M:1/4] [D,A,]2 |[M:4/4][K:treble] [A,CG]3 [A,DG] [A,EG]2 .[A,B,G]2 | %19
 [D,D]2 [D,A,]2 [D,D]3 [D,D] | [G,DG]2 [F,A,D]2 [E,A,C]2 [D,A,D]2 | [A,,A,]6 [D,A,]2 | %22
 [D,D]>[D,D] [D,D][D,A,] [D,A,]3 [F,D] | [G,D]2 [G,B,]2 [E,B,]3 [E,E] | %24
 [A,EG]2 [A,EG]2 [A,DA]2 [A,CG]2 |[M:3/4][K:bass] [D,A,]6 |] %26
V:3
 x8 | z4 z2 F2 | z4 z2 F2 | x8 | x8 | x8 | z2 G2 z4 | x8 | [CE]2 [EG]2 [A,C]2 C-[CE] | x8 | x8 | %11
 x8 | x8 | x8 | x8 | x8 |[M:3/4] x6 |[M:1/4] x2 |[M:4/4] z4 z2 B2 | x8 | x8 | x8 | x8 | x8 | x8 | %25
[M:3/4] x6 |] %26
V:4
 x8 | x8 | x2[K:treble] x6 | x8 | x8 | x8 | x8 | x8 | z4 E,2 A,,2 | x8 | x4[K:treble] x4 | %11
 x2[K:bass] x6 | x8 | x8 | x4[K:treble] x4 | x8 |[M:3/4][K:bass] x6 |[M:1/4] x2 | %18
[M:4/4][K:treble] x8 | x8 | x8 | x8 | x8 | x8 | x8 |[M:3/4][K:bass] x6 |] %26

